X:171
T:Over the Moor to Maggie                                                                           
M:4/4                                                                                               
L:1/8                                                                                               
K:G                                                                                                 
G3 A BG (3Bcd|eGge dBAG|EA A2 ABAG|(3BAG AB dBAB|                                                   
G3 d BG (3Bcd|e2 ge dBAG|EGGF GAGE|1 DGGF G2 dB :|2 DGGF G4 ||                                      
b3 g a3 f|gage d2 (3Bcd|eaae abag|eaae aec'a|                                                       
b2 gb a2 fa|gage d2 (3Bcd|efge bgaf|1 dggf g3 a:|2 dggf g2 (3Bcd||                                  
e3 c d3 B|c3 A B2 AG|EA A2 ABAG|EAAG ABcd|                                                          
edce dcBd|cBAc B2 AG|EGGF GAGE|DCB,D G4 :|
